X:1
T:Ballongvisa
T:Ballongvisa 
T:2020 Oppgave SATB ved Pål Runsjø
%%score 1 2 3 4
L:1/8
M:4/4
K:G
V:1 treble nm="Sopran" snm="S."
V:2 treble nm="Alt" snm="A."
V:3 treble nm="Tenor" snm="T."
V:4 bass nm="Bass" snm="B."
V:1
 DD |"G" BcdB"E7" edcB |"Am" A^GAc E3 E |"D" AAAB AGED |"C" G4"G" G2 DD |"G" BcdB"E7" edcB | %6
w: Tenk om|ver- da var en bal- long som vi|ail- le bod- de på, og|ing- en folk var fat- tig, in- gen|ri- ke. Tenk om|æil- le had- de sa- me Gud som|
"Am" A^GAc E3 E |"D" AAAB AGED |"C" G4"G" G3 G |"C" gggg ffee |"Bm" ffdd"E7" B3 B | %11
w: æil- le trud- de på, da|vil- le jor- da vo- ri him- mel-|ri- ke For|bal- lon- ger er sli- ke en lyt|va- ra var- som med. Dom|
"Am" eecc"D" AAGF |"G" GABc"G7" d3 G |"C" gggg ffee |"Bm" ffdd"E7" B3 B |"Am" ecAG"D7" FGAF | %16
w: går så lett i sund om it- te|folk lar dom i fre. Og|it- te kaæi vel no- en si at|halv- par- ten er min Nå|stikk je høl i bal- long- del- en|
"G" G4 z4 |] %17
w: din.|
V:2
 DD | GGGG ^GGAG | A z z2 z4 | AAAA AABA | G4 G2 BB | GGGG ^GGAG | A z z2 z4 | AAAA AABA | %8
 G4 D3 d | cccB cccG | BBBc _A3 A | ccce dAAA | d2 z2 z4 | cccB ceeG | BBBc _A3 A | z4 ccAc | %16
 d4 z4 |] %17
V:3
 DD | DDDD EEED | C z z2 z4 | FFFG FFFF | E4 D2 GG | DDDD EEED | C z z2 z4 | FFFG FFFF | E4 B,3 B | %9
 EEEG EEFF | DDDF E3 E | EEEA FFFF | B2 z2 z4 | EEEG GGGG | DDDF E3 E | z4 AAFA | B4 z4 |] %17
V:4
 D,D, | G,,G,,G,,D, E,E,E,,E,, | A,,A,,A,,A,, A,,3 A,, | D,D,D,D, F,,G,,A,,A,, | C,4 D,2 G,G, | %5
 G,G,G,F, D,E,E,E, | B,,B,,B,,G,, A,,3 B,, | D,D,D,D, F,,G,,A,,A,, | C,4 G,3 G, | %9
 C,C,C,C, G,,G,,B,,C, | B,,B,,B,,D, E,3 E, | A,,A,,A,,C, D,D,D,D, | G,G,G,F, E,3 D, | %13
 C,C,C,C, E,C,C,C, | A,,B,,B,,D, E,3 E, | A,,F,,G,,A,, D,D,D,D, | G,4 z4 |] %17

